X: 1
T: Reel Saint-Joseph
O: Qu\'ebec
R: reel
Z: 2010 John Chambers <jc:trillian.mit.edu>
B: Portland Collection
M: C|
L: 1/8
K: D
A2 |\
"D"defd "A7"cdec | "D"defd A2dc | "G"B2gf edcB | "A"Aaab agfe |
"D"defd "A7"cdec | "D"defd A2dc | "G"B2gf edcB | "A7"Agec "D"d2 :|
|: de |\
"D"f2fg fedc | "G"BAG2 "Em"g3f | "A7"e2ef edcB | Aaab agfe |
"Bm"f2fg fedc | "G"BAG2 "Em"g3f | "A7"e2ef edcB | "A7"Agec "D"d2 :|

%%sep 1 1 500

